X:1
T:8 Lieder und Gesänge, Op.59
T:Nachklang
T:8 Lieder und Gesänge, Op.59
T:4. Nachklang
T:Johannes Brahms
T:Klaus Groth
T:Creative Commons copyright waiver (CC0 1.0 Universal)
T:Creative Commons copyright waiver (CC0 1.0 Universal)
T:Creative Commons copyright waiver (CC0 1.0 Universal)
C:Johannes Brahms
Z:Klaus Groth
Z:Creative Commons copyright waiver (CC0 1.0 Universal)
L:1/8
M:2/2
K:A
V:1 treble nm="Voice"
V:1
!p! c3 c | c6 B2 | (d2 f2) (e2 d2) | c6 B2 | (c2 d2) (A2 G2) | c6 B2 | A6 G2 | (G4 F2) z2 | %8
w: Re- gen-|trop- fen|aus * den *|Bäu- men|fal- * len *|in das|grü- ne|Gras, *|
 z2 d4 d2 | d6 B2 | (d2 =c2) (B2 A2) | ^A4 B2 z2 | z4 d3 d | c6 c2 | f6 A2 | G4 z4 | z8 | z8 | z8 | %19
w: Trä- nen|mei- ner|trü- * ben *|Au- gen|ma- chen|mir die|Wan- ge|nass.||||
 z8 | z4 c3 c | c6 B2 | (A2 c2) (B2 A2) | A4 G2 z2 | z4 B3 B | e6 ^e2 | (f2 d2) (A2 B2) | c4 z4 | %28
w: |Wenn die|Son- ne|wie- * der *|schei- net,|wird der|Ra- sen|dop- * pelt *|grün:|
 z8 | z8 | z8 | z2 c4 c2 | c6 B2 | (d2 f2) (e2 d2) | c6 B2 | (c2 d2) (A2 G2) | (c2 a2) (g2 ^e2) | %37
w: |||dop- pelt|wird auf|mei- * nen *|Wan- gen|mir * die *|hei- * sse *|
 (f2 d2) (c2 B2) | (A4 G2) z2 | z2 B4 B2 | (d8- | d2 ^B2) (c2 F2) | A8- | A4 G4 | F4 z4 | z8 | z8 | %47
w: Trä- * ne *|glühn, *|mir die|hei-|* * sse *|Trä-|* ne|glühn.|||
 z8 | z8 | z8 | !fermata!z4 |] %51
w: ||||

